X:32201
T:The Kilt is My Delight
C:TBD
B: Scots Guard I(202)
H:
O:Kevin Fraser
Z:Kevin Fraser
Q:1/4=105
K:HP
M:2/2
L:1/8
R:Reel
U: R = ///
U: r = //
U: V = !accent!
V:M gstem=up stem=down name="Melody" sname="Melody" 
V:H gstem=up stem=down name="Harmony" sname="Harmony"
V:C gstem=up stem=down name="C-Harmony" sname="C-Harmony"
V:S gstem=up stem=down dyn=up stafflines=1 clef=perc middle=G name="Snare" sname="Snare" sname="Snare"
V:B gstem=up stem=down clef=none dyn=up name="Bass" sname="Bass"
V:T gstem=up stem=down clef=none dyn=up name="Tenor" sname="Tenor"
V:BB gstem=up stem=down name="Brass Bass" sname="ABCD-C" transpose=-1  octave=-1 clef=bass
V:BC gstem=up stem=down name="Brass Chord" sname="ABCD-D" transpose=-1
V:BD gstem=up stem=down name="Brass Chord 2" sname="ABCD-B" transpose=-1
V:P gstem=up stem=down name="Piano" octave=-1
I:MIDI=program 110
%%MIDI gracedivider 4
%%score {M S B T}
%%MIDI program 109 #bagpipes
%%MIDI vol 100
%%landscape
%%score M
V:M
   [|   {g}A>{d}A{e}A>{d}B {g}A>B{g}d>f | {g}e2 {GdG}e>f {gde}d>B{G}B>e | {g}A>{d}A{e}A>{d}B {g}A>B{g}d>f | {g}e2 {GdG}e>f {Gdc}d2 {g}de | $
w: hen den un do hen o ha ve | he dre ve hata o ro e | hen den un do hen o ha ve | hen dre ve tra ha e 
V:M
     |  {g}A>{d}A{e}A>{d}B {g}A>B{g}d>f | {g}e2 {GdG}e>f {gde}d>B{G}B>e | {g}A>{d}A{e}A>{d}B {g}A>B{g}d>f | {g}e2 {GdG}e>f {Gdc}d2 {gV:M}de |]   $ 
w: hen den un do hen o ha ve | he dre ve hata o ro e | hen den un do hen o ha ve | hen dre ve tra ha e 
V:M
     |  {gf}g2 a>g         {fg}f2 a>f   | {g}e2 {GdG}e>f {gde}d>B{G}B>e | {gf}g2 a>g         {fg}f2 a>f   | {g}e2 {GdG}e>f {Gdc}d2 {gV:M}de  | $
w: viri I di vete I ve | he dre ve hata o ro e  | viri I di ete I ve | he dre ve tra ha e
V:M
     |  {gf}g2 a>g         {fg}f2 a>f   | {g}e2 {GdG}e>f {gde}d>B{G}B>e | {g}A>{d}A{e}A>{d}B {g}A>B{g}d>f | {g}e2 {GdG}e>f {Gdc}d2 {gdc}d2  |] $
w: viri I di vete I ve | he dre ve hata o ro e  | hen den un do hen o ha ve | hen dre ve tra ha e 
%%MIDI channel 10
%%MIDI program 0 
%%MIDI drummap c 38
%%MIDI drummap A 38
%%MIDI vol 50
%%MIDI drumon
% %MIDI drumoff
V:S
[|         {A}c2 (RA2Vc2) (RA2          | Vc)>Ac>c   A>cA>A     | {A}c2 (RA2Vc2) (RA2          | Vc)>Ac>c (Rc2 VA2) | $
V:S
         {A}c2 (RA2Vc2) (RA2          | Vc)>Ac>c   A>cA>A     | {A}c2 (RA2Vc2) (RA2          | Vc)>Ac>c (Rc2 VA2) |] $
V:S
[|         {AA}c2 {AA}c2 {A}c>A {A}c2 | {A}c>VAc>c (3:cAc {c}A2 | {AA}c2 {AA}c2 {A}c>A {A}c2  | {A}c>VAc>c (Rc2 VA2) | $
V:S
          V(3:cAc(3:AcA c2 {c}A2   | V(3:cAc(3:AcA c>A {A}c2 | V(3:cAc(3:AcA Vc2 {c}A2   | {A}c>VAc>c (Rc2 VA2) |] $
% %MIDI program 116 #taiko drum
% %MIDI program 0 
%%MIDI channel 10
%%MIDI vol 80
%%MIDI drummap A 35
%%MIDI drumon
L:1/8
V:B
[|         c2 A2 c2 A2 | c2 A2 c>A c2 | c2 A2 c2 A2 | c2 A2 c>A c2 | $
V:B
|         c2 A2 c2 A2 | c2 A2 c>A c2 | c2 A2 c2 A2 | c2 A2 c>A c2 |] $
V:B 
[|         c2 A2 c2 A2 | c2 A2 c>A c2 | c2 A2 c2 A2 | c2 A2 c>A c2 | $
V:B 
	c2 A2 c2 A2 | c2 A2 c>A c2 | c2 A2 c2 A2 | c2 A2 c>A c2 |] $ 
%%MIDI drumoff
%%MIDI drummap e 43
%%MIDI channel 10
%%MIDI program 117 #Melodic Tom
%%MIDI vol 70
%%MIDI drumon
V:T
[|         c2 A2 c>A c2 | (3:2cAc(3:2AcA c>A c2 | c2 A2 c>A c2 | (3:2cAc(3:2AcA c2 A2 | $
V:T 
|         c2 A2 c>A c2 | (3:2cAc(3:2AcA c>A c2 | c2 A2 c>A c2 | (3:2cAc(3:2AcA c2 A2 |] $
V:T
[|         c2 A2 c>A c2 | (3:2cAc(3:2AcA c>A c2 | c2 A2 c>A c2 | (3:2cAc(3:2AcA c2 A2 | $
V:T 
	c2 A2 c>A c2 | (3:2cAc(3:2AcA c>A c2 | c2 A2 c>A c2 | (3:2cAc(3:2AcA c2 A2 |] $
%%MIDI drumoff


